X:1
T:Waiting for the Ferry
C:Graeme Miles
M:Common
L:1/8
K:G
B3A G3D|EG (AB/A/ GA B2)|B2A2(G2D)D|EG- G4D2|B A3G3D|[M:5/4]E2G2(D B,3)D3/2D/|
[M:Common]E2G2F2D2|EG- G4A3/2B/|c3B c d3|[M:5/4]e2d2B4B2|
[M:Common]c2B2A3G|F A3-A4|B3A G3D|E2G2(D B,3)|E2G2(G2D)D|EG- G4|]
